public/img/logo/nor.svg

<svg xmlns="http://www.w3.org/2000/svg" width="782" height="639" fill="none"><path fill="url(#a)" d="M213.805 253c22.091 0 40 17.909 40 40v47.805c0 2.669-.264 5.276-.763 7.799-17.184.399-31.039 14.254-31.438 31.438-2.523.499-5.13.763-7.799.763H166c-22.091 0-40-17.909-40-40V293c0-22.091 17.909-40 40-40z"/><path fill="#fff" d="M209.801 347.155c-20.817 12.98-43.892 2.695-51.686-12.907 3.518 1.125 6.912 2.44 10.423 3.27 3.58.845 7.273 1.21 10.97 1.792 1.522 3.708 2.247 4.188 6.464 4.181 1.519 0 3.037.051 4.552-.022 3.231-.156 4.647-2.068 4.596-6.085-.04-3.18-1.679-4.917-4.738-4.971-1.759-.033-3.521-.008-5.28 0-3.256.007-4.302.702-5.522 3.722-8.063-.459-15.769-2.273-22.845-6.337-.605-.346-1.158-1.075-1.388-1.745-5.677-16.392 2.429-36.036 18.137-43.44 13.803-6.505 27.114-5.328 39.052 4.257 10.554 8.471 14.608 19.892 12.925 33.316-.725 5.769-2.957 10.944-6.238 15.719-.346.502-.434 1.383-.277 1.995 1.103 4.261 3.059 8.023 6.653 10.762.226.175.419.393.671.63-4.502 1.588-11.265-.142-16.469-4.133z"/><path fill="#fff" d="M182.306 337.895a2.73 2.73 0 0 1 2.732-2.732h5.28c1.207 0 2.185.978 2.185 2.185a3.28 3.28 0 0 1-3.277 3.278h-4.188a2.73 2.73 0 0 1-2.732-2.731"/><path fill="url(#b)" d="M244.024 384.448a2.245 2.245 0 1 1-4.259-1.426l5.322-15.437a4.032 4.032 0 0 1 7.622.001l5.314 15.437a2.246 2.246 0 1 1-4.26 1.424l-4.757-14.672a.114.114 0 0 0-.216 0zm-.803-5.011c0-.963.78-1.744 1.743-1.744h7.806a1.744 1.744 0 0 1 0 3.488h-7.806a1.743 1.743 0 0 1-1.743-1.744"/><path fill="url(#c)" d="M262.335 386a2.195 2.195 0 0 1-2.195-2.195v-11.46a2.194 2.194 0 1 1 4.389 0v11.46a2.194 2.194 0 0 1-2.194 2.195m.01-17.893a2.38 2.38 0 0 1-1.68-.65q-.69-.66-.69-1.578 0-.909.69-1.558a2.36 2.36 0 0 1 1.68-.661q.978 0 1.669.661.7.65.701 1.558 0 .918-.701 1.578-.69.65-1.669.65"/><path fill="#000" d="M331.025 365.7q-14.04 0-24.24-5.4-10.08-5.52-15.36-15.24-5.28-9.84-5.28-22.56t5.28-22.44q5.28-9.84 15.36-15.24 10.2-5.52 24.24-5.52t24.12 5.52q10.2 5.4 15.48 15.24 5.28 9.72 5.28 22.44t-5.28 22.56q-5.28 9.72-15.48 15.24-10.08 5.4-24.12 5.4m0-12.6q13.68 0 21.24-8.16 7.56-8.28 7.56-22.44 0-14.28-7.92-22.44-7.8-8.16-22.08-8.16-13.08 0-20.4 8.4-7.2 8.28-7.2 22.2 0 14.16 7.56 22.44 7.56 8.16 21.24 8.16m58.901 12.6q-3.72 0-5.76-1.92t-2.04-5.28v-46.8q0-3.48 1.92-5.28 2.04-1.92 5.64-1.92t5.64 1.92 2.04 5.28v3.48q8.52-10.68 23.28-10.68 11.52 0 18.12 7.32 6.72 7.2 6.72 19.68v27q0 3.36-2.16 5.28t-5.76 1.92q-3.72 0-5.76-1.92t-2.04-5.28v-27q0-6.84-3.36-10.68t-9.36-3.84q-9.12 0-14.16 5.4-5.04 5.28-5.04 14.88v21.24q0 3.36-2.16 5.28t-5.76 1.92m81.628-1.2q-9.12 0-14.16-4.8t-5.04-13.44v-48q0-8.4 4.8-13.08 4.92-4.68 13.56-4.68h16.8q13.8 0 23.88 5.04t15.36 14.52q5.4 9.48 5.4 22.56t-5.4 22.56q-5.28 9.36-15.36 14.4-9.96 4.92-23.88 4.92zm14.76-12.36q15 0 22.32-7.2 7.32-7.32 7.32-22.32t-7.44-22.32q-7.32-7.44-22.2-7.44h-12.84q-2.4 0-3.84 1.56-1.32 1.56-1.32 4.32v47.52q0 2.76 1.32 4.32 1.44 1.56 3.84 1.56zm61.873-55.08q-4.44 0-7.2-2.4-2.64-2.52-2.64-6.48t2.64-6.36q2.76-2.52 7.2-2.52t7.2 2.52q2.88 2.4 2.88 6.36t-2.88 6.48q-2.76 2.4-7.2 2.4m.12 68.64q-3.72 0-5.76-1.92t-2.04-5.28v-46.8q0-3.36 2.04-5.28t5.76-1.92q3.6 0 5.76 1.92t2.16 5.28v46.8q0 3.36-2.16 5.28t-5.76 1.92m40.177 0q-7.44 0-13.2-2.52-5.64-2.52-8.88-6.96-3.12-4.56-3.12-10.44 0-8.88 7.32-14.16 7.44-5.28 20.04-5.28 10.92 0 17.52 4.68v-2.88q0-5.64-3.48-8.64t-10.08-3q-9.84 0-16.92 4.2-3 1.68-5.16 1.68-2.64 0-4.68-2.4-1.32-1.68-1.32-3.48 0-3 3.12-5.28 4.32-3.12 10.92-4.92t13.92-1.8q13.92 0 21.84 6.36 8.04 6.24 8.04 17.28v30.84q0 3.12-2.16 4.92-2.04 1.8-5.64 1.8-3.72 0-5.76-1.68t-2.04-4.8v-1.32q-6.84 7.8-20.28 7.8m3.72-11.04q7.56 0 11.76-2.28 4.32-2.4 4.32-6.6 0-3.96-4.32-6.36t-11.52-2.4q-6.48 0-10.08 2.28-3.48 2.28-3.48 6.48t3.48 6.6q3.48 2.28 9.84 2.28m47.993 11.04q-3.72 0-5.76-1.92t-2.04-5.28v-77.88q0-3.36 2.04-5.28t5.76-1.92q3.6 0 5.76 1.92t2.16 5.28v77.88q0 3.36-2.16 5.28t-5.76 1.92"/><defs><linearGradient id="a" x1="126.187" x2="253.991" y1="380.805" y2="253.374" gradientUnits="userSpaceOnUse"><stop stop-color="#4800ff"/><stop offset="1" stop-color="#703bf7"/></linearGradient><linearGradient id="b" x1="238.044" x2="272.143" y1="392.538" y2="364.951" gradientUnits="userSpaceOnUse"><stop stop-color="#4800ff"/><stop offset="1" stop-color="#703bf7"/></linearGradient><linearGradient id="c" x1="238.044" x2="272.143" y1="392.538" y2="364.951" gradientUnits="userSpaceOnUse"><stop stop-color="#4800ff"/><stop offset="1" stop-color="#703bf7"/></linearGradient></defs></svg>

<svg width="782" height="639" viewBox="0 0 782 639" fill="none" xmlns="http://www.w3.org/2000/svg">
<path d="M213.805 253C235.896 253 253.805 270.909 253.805 293V340.805C253.805 343.474 253.541 346.081 253.042 348.604C235.858 349.003 222.003 362.858 221.604 380.042C219.081 380.541 216.474 380.805 213.805 380.805H166C143.909 380.805 126 362.896 126 340.805V293C126 270.909 143.909 253 166 253H213.805Z" fill="url(#paint0_linear_110_2)"/>
<path d="M209.801 347.155C188.984 360.135 165.909 349.85 158.115 334.248C161.633 335.373 165.027 336.688 168.538 337.518C172.118 338.363 175.811 338.728 179.508 339.31C181.03 343.018 181.755 343.498 185.972 343.491C187.491 343.491 189.009 343.542 190.524 343.469C193.755 343.313 195.171 341.401 195.12 337.384C195.08 334.204 193.441 332.467 190.382 332.413C188.623 332.38 186.861 332.405 185.102 332.413C181.846 332.42 180.8 333.115 179.58 336.135C171.517 335.676 163.811 333.862 156.735 329.798C156.13 329.452 155.577 328.723 155.347 328.053C149.67 311.661 157.776 292.017 173.484 284.613C187.287 278.108 200.598 279.285 212.536 288.87C223.09 297.341 227.144 308.762 225.461 322.186C224.736 327.955 222.504 333.13 219.223 337.905C218.877 338.407 218.789 339.288 218.946 339.9C220.049 344.161 222.005 347.923 225.599 350.662C225.825 350.837 226.018 351.055 226.27 351.292C221.768 352.88 215.005 351.15 209.801 347.159V347.155Z" fill="white"/>
<path d="M182.306 337.895C182.306 336.386 183.529 335.163 185.038 335.163H190.318C191.525 335.163 192.503 336.141 192.503 337.348V337.348C192.503 339.158 191.036 340.626 189.226 340.626H185.038C183.529 340.626 182.306 339.403 182.306 337.895V337.895Z" fill="white"/>
<path d="M244.024 384.448C243.723 385.373 242.861 386 241.888 386V386C240.345 386 239.262 384.481 239.765 383.022L245.087 367.585C245.647 365.959 247.178 364.867 248.898 364.867V364.867C250.618 364.867 252.149 365.96 252.709 367.586L258.023 383.023C258.525 384.481 257.442 386 255.9 386V386C254.926 386 254.063 385.373 253.763 384.447L249.006 369.775C248.991 369.728 248.947 369.697 248.898 369.697V369.697C248.849 369.697 248.806 369.728 248.79 369.775L244.024 384.448ZM243.221 379.437C243.221 378.474 244.001 377.693 244.964 377.693H252.77C253.733 377.693 254.514 378.474 254.514 379.437V379.437C254.514 380.4 253.733 381.181 252.77 381.181H244.964C244.001 381.181 243.221 380.4 243.221 379.437V379.437Z" fill="url(#paint1_linear_110_2)"/>
<path d="M262.335 386C261.122 386 260.14 385.017 260.14 383.805V372.345C260.14 371.133 261.122 370.151 262.335 370.151V370.151C263.547 370.151 264.529 371.133 264.529 372.345V383.805C264.529 385.017 263.547 386 262.335 386V386ZM262.345 368.107C261.692 368.107 261.132 367.891 260.665 367.457C260.205 367.017 259.975 366.491 259.975 365.879C259.975 365.273 260.205 364.754 260.665 364.321C261.132 363.88 261.692 363.66 262.345 363.66C262.997 363.66 263.554 363.88 264.014 364.321C264.481 364.754 264.715 365.273 264.715 365.879C264.715 366.491 264.481 367.017 264.014 367.457C263.554 367.891 262.997 368.107 262.345 368.107Z" fill="url(#paint2_linear_110_2)"/>
<path d="M331.025 365.7C321.665 365.7 313.585 363.9 306.785 360.3C300.065 356.62 294.945 351.54 291.425 345.06C287.905 338.5 286.145 330.98 286.145 322.5C286.145 314.02 287.905 306.54 291.425 300.06C294.945 293.5 300.065 288.42 306.785 284.82C313.585 281.14 321.665 279.3 331.025 279.3C340.385 279.3 348.425 281.14 355.145 284.82C361.945 288.42 367.105 293.5 370.625 300.06C374.145 306.54 375.905 314.02 375.905 322.5C375.905 330.98 374.145 338.5 370.625 345.06C367.105 351.54 361.945 356.62 355.145 360.3C348.425 363.9 340.385 365.7 331.025 365.7ZM331.025 353.1C340.145 353.1 347.225 350.38 352.265 344.94C357.305 339.42 359.825 331.94 359.825 322.5C359.825 312.98 357.185 305.5 351.905 300.06C346.705 294.62 339.345 291.9 329.825 291.9C321.105 291.9 314.305 294.7 309.425 300.3C304.625 305.82 302.225 313.22 302.225 322.5C302.225 331.94 304.745 339.42 309.785 344.94C314.825 350.38 321.905 353.1 331.025 353.1ZM389.926 365.7C387.446 365.7 385.526 365.06 384.166 363.78C382.806 362.5 382.126 360.74 382.126 358.5V311.7C382.126 309.38 382.766 307.62 384.046 306.42C385.406 305.14 387.286 304.5 389.686 304.5C392.086 304.5 393.966 305.14 395.326 306.42C396.686 307.7 397.366 309.46 397.366 311.7V315.18C403.046 308.06 410.806 304.5 420.646 304.5C428.326 304.5 434.366 306.94 438.766 311.82C443.246 316.62 445.486 323.18 445.486 331.5V358.5C445.486 360.74 444.766 362.5 443.326 363.78C441.886 365.06 439.966 365.7 437.566 365.7C435.086 365.7 433.166 365.06 431.806 363.78C430.446 362.5 429.766 360.74 429.766 358.5V331.5C429.766 326.94 428.646 323.38 426.406 320.82C424.166 318.26 421.046 316.98 417.046 316.98C410.966 316.98 406.246 318.78 402.886 322.38C399.526 325.9 397.846 330.86 397.846 337.26V358.5C397.846 360.74 397.126 362.5 395.686 363.78C394.246 365.06 392.326 365.7 389.926 365.7ZM471.554 364.5C465.474 364.5 460.754 362.9 457.394 359.7C454.034 356.5 452.354 352.02 452.354 346.26V298.26C452.354 292.66 453.954 288.3 457.154 285.18C460.434 282.06 464.954 280.5 470.714 280.5H487.514C496.714 280.5 504.674 282.18 511.394 285.54C518.114 288.9 523.234 293.74 526.754 300.06C530.354 306.38 532.154 313.9 532.154 322.62C532.154 331.34 530.354 338.86 526.754 345.18C523.234 351.42 518.114 356.22 511.394 359.58C504.754 362.86 496.794 364.5 487.514 364.5H471.554ZM486.314 352.14C496.314 352.14 503.754 349.74 508.634 344.94C513.514 340.06 515.954 332.62 515.954 322.62C515.954 312.62 513.474 305.18 508.514 300.3C503.634 295.34 496.234 292.86 486.314 292.86H473.474C471.874 292.86 470.594 293.38 469.634 294.42C468.754 295.46 468.314 296.9 468.314 298.74V346.26C468.314 348.1 468.754 349.54 469.634 350.58C470.594 351.62 471.874 352.14 473.474 352.14H486.314ZM548.187 297.06C545.227 297.06 542.827 296.26 540.987 294.66C539.227 292.98 538.347 290.82 538.347 288.18C538.347 285.54 539.227 283.42 540.987 281.82C542.827 280.14 545.227 279.3 548.187 279.3C551.147 279.3 553.547 280.14 555.387 281.82C557.307 283.42 558.267 285.54 558.267 288.18C558.267 290.82 557.307 292.98 555.387 294.66C553.547 296.26 551.147 297.06 548.187 297.06ZM548.307 365.7C545.827 365.7 543.907 365.06 542.547 363.78C541.187 362.5 540.507 360.74 540.507 358.5V311.7C540.507 309.46 541.187 307.7 542.547 306.42C543.907 305.14 545.827 304.5 548.307 304.5C550.707 304.5 552.627 305.14 554.067 306.42C555.507 307.7 556.227 309.46 556.227 311.7V358.5C556.227 360.74 555.507 362.5 554.067 363.78C552.627 365.06 550.707 365.7 548.307 365.7ZM588.484 365.7C583.524 365.7 579.124 364.86 575.284 363.18C571.524 361.5 568.564 359.18 566.404 356.22C564.324 353.18 563.284 349.7 563.284 345.78C563.284 339.86 565.724 335.14 570.604 331.62C575.564 328.1 582.244 326.34 590.644 326.34C597.924 326.34 603.764 327.9 608.164 331.02V328.14C608.164 324.38 607.004 321.5 604.684 319.5C602.364 317.5 599.004 316.5 594.604 316.5C588.044 316.5 582.404 317.9 577.684 320.7C575.684 321.82 573.964 322.38 572.524 322.38C570.764 322.38 569.204 321.58 567.844 319.98C566.964 318.86 566.524 317.7 566.524 316.5C566.524 314.5 567.564 312.74 569.644 311.22C572.524 309.14 576.164 307.5 580.564 306.3C584.964 305.1 589.604 304.5 594.484 304.5C603.764 304.5 611.044 306.62 616.324 310.86C621.684 315.02 624.364 320.78 624.364 328.14V358.98C624.364 361.06 623.644 362.7 622.204 363.9C620.844 365.1 618.964 365.7 616.564 365.7C614.084 365.7 612.164 365.14 610.804 364.02C609.444 362.9 608.764 361.3 608.764 359.22V357.9C604.204 363.1 597.444 365.7 588.484 365.7ZM592.204 354.66C597.244 354.66 601.164 353.9 603.964 352.38C606.844 350.78 608.284 348.58 608.284 345.78C608.284 343.14 606.844 341.02 603.964 339.42C601.084 337.82 597.244 337.02 592.444 337.02C588.124 337.02 584.764 337.78 582.364 339.3C580.044 340.82 578.884 342.98 578.884 345.78C578.884 348.58 580.044 350.78 582.364 352.38C584.684 353.9 587.964 354.66 592.204 354.66ZM640.197 365.7C637.717 365.7 635.797 365.06 634.437 363.78C633.077 362.5 632.397 360.74 632.397 358.5V280.62C632.397 278.38 633.077 276.62 634.437 275.34C635.797 274.06 637.717 273.42 640.197 273.42C642.597 273.42 644.517 274.06 645.957 275.34C647.397 276.62 648.117 278.38 648.117 280.62V358.5C648.117 360.74 647.397 362.5 645.957 363.78C644.517 365.06 642.597 365.7 640.197 365.7Z" fill="black"/>
<defs>
<linearGradient id="paint0_linear_110_2" x1="126.187" y1="380.805" x2="253.991" y2="253.374" gradientUnits="userSpaceOnUse">
<stop stop-color="#4800FF"/>
<stop offset="1" stop-color="#703BF7"/>
</linearGradient>
<linearGradient id="paint1_linear_110_2" x1="238.044" y1="392.538" x2="272.143" y2="364.951" gradientUnits="userSpaceOnUse">
<stop stop-color="#4800FF"/>
<stop offset="1" stop-color="#703BF7"/>
</linearGradient>
<linearGradient id="paint2_linear_110_2" x1="238.044" y1="392.538" x2="272.143" y2="364.951" gradientUnits="userSpaceOnUse">
<stop stop-color="#4800FF"/>
<stop offset="1" stop-color="#703BF7"/>
</linearGradient>
</defs>
</svg>
